korla/apps/scalable/tixati.svg

<svg clip-rule="evenodd" fill-rule="evenodd" stroke-linejoin="round" stroke-miterlimit="2" viewBox="0 0 48 48" xmlns="http://www.w3.org/2000/svg">
 <linearGradient id="a" x2="1" gradientTransform="matrix(0 -56 56 0 -192 60)" gradientUnits="userSpaceOnUse">
  <stop stop-color="#111" offset="0"/>
  <stop stop-color="#4f4f4f" offset="1"/>
 </linearGradient>
 <path d="m39.44 2.332c3.438 0 6.228 2.79 6.228 6.228v30.88c0 3.438-2.79 6.228-6.228 6.228h-30.88c-3.438 0-6.228-2.79-6.228-6.228v-30.88c0-3.438 2.79-6.228 6.228-6.228z" fill="url(#a)"/>
 <g fill-rule="nonzero">
  <path d="m45.098 42.045c-.486 1.054-1.259 1.949-2.217 2.586l-18.881-41.005-18.881 41.005c-.959-.637-1.731-1.532-2.217-2.586l18.284-39.713h5.628z" fill="#be3535"/>
  <path d="m24 21.812 18.612-18.612c.9.534 1.654 1.288 2.188 2.188l-18.612 18.612 18.612 18.612c-.534.9-1.288 1.654-2.189 2.188l-18.611-18.612-18.612 18.612c-.9-.534-1.654-1.288-2.188-2.188l18.611-18.612-18.611-18.612c.534-.9 1.288-1.654 2.188-2.188z" fill="#57982d"/>
  <path d="m39.44 2.332c2.296 0 4.303 1.245 5.383 3.095h-19.275v40.241h-3.096v-40.241h-19.275c1.08-1.85 3.087-3.095 5.383-3.095z" fill="#036fff"/>
 </g>
</svg>

<svg style="clip-rule:evenodd;fill-rule:evenodd;stroke-linejoin:round;stroke-miterlimit:2" version="1.1" viewBox="0 0 48 48" xmlns="http://www.w3.org/2000/svg">
 <path d="m39.44 2.332c3.438 0 6.228 2.79 6.228 6.228v30.88c0 3.438-2.79 6.228-6.228 6.228h-30.88c-3.438 0-6.228-2.79-6.228-6.228v-30.88c0-3.438 2.79-6.228 6.228-6.228h30.88z" style="fill:url(#_Linear1)"/>
 <path d="m45.098 42.045c-0.486 1.054-1.259 1.949-2.217 2.586l-18.881-41.005-18.881 41.005c-0.959-0.637-1.731-1.532-2.217-2.586l18.284-39.713h5.628l18.284 39.713z" style="fill-rule:nonzero;fill:rgb(190,53,53)"/>
 <path d="M24,21.812L42.612,3.2C43.512,3.734 44.266,4.488 44.8,5.388L26.188,24L44.8,42.612C44.266,43.512 43.512,44.266 42.611,44.8L24,26.188L5.388,44.8C4.488,44.266 3.734,43.512 3.2,42.612L21.811,24L3.2,5.388C3.734,4.488 4.488,3.734 5.388,3.2L24,21.812Z" style="fill-rule:nonzero;fill:rgb(87,152,45)"/>
 <path d="m39.44 2.332c2.296 0 4.303 1.245 5.383 3.095h-19.275v40.241h-3.096v-40.241h-19.275c1.08-1.85 3.087-3.095 5.383-3.095h30.88z" style="fill-rule:nonzero;fill:rgb(3,111,255)"/>
 <defs>
  <linearGradient id="_Linear1" x2="1" gradientTransform="matrix(3.42901e-15,-56,56,3.42901e-15,-192,60)" gradientUnits="userSpaceOnUse">
   <stop style="stop-color:rgb(17,17,17)" offset="0"/>
   <stop style="stop-color:rgb(79,79,79)" offset="1"/>
  </linearGradient>
 </defs>
</svg>
